X: 1287
T: Black Haired Lass
B: australian traditional tunes wiki
M:4/4
L:1/8
R: Schottische
Q: 1/4=100
K:G
V:1 
B>c||"G"d>B G>B "D7"c>A F>A|"G"G>F G>A G>A B>c|"G"d>g f>g "C"e>f g>e|"G"d>B G>B "D7"A2B>c|
"G"d>B G>B "D7"c>A F>A|"G"G>F G>A G>A B>c|"G"d>g f>g "C"e>c "D7"A>F|"G"G2G2G2B>c|
"G"d>g g>g "C"e>g g>g|"G"d>g g>g "C"e>g g>g|"G"d>g g>g "C"e>f g>e|"G"d>B G>B "D7"A2B>c|
"G"d>B G>B "D7"c>A F>A|"G"G>F G>A G>A B>c|"G"d>g f>g "C"e>c "D7"A>F|"G"G2G2G4|
% abcbook-tune_id 6342d53aae53ac5ccba84421


% abcbook-boost 0
% abcbook-tablature 
% abcbook-transpose 
% abcbook-lastupdated 1665324357485
% abcbook-soundfonts 
% abcbook-repeats 1
% NFF Book 2014

